public/images/techstack/koyeb.svg

<svg height="480" version="1.1" viewBox="0, 0, 1780.226, 480" width="1780.226" x="0" xmlns="http://www.w3.org/2000/svg" xmlns:xlink="http://www.w3.org/1999/xlink" y="0">
<g id="Layer_1" transform="translate(-0, -0)">
<g>
<path d="M242.171,116.666 L484.653,256.284 L484.653,139.774 L242.016,0 L0,139.929 L0,256.594 z" fill="#011627"></path>
<path d="M445.867,396.691 L484.653,373.88 L484.653,302.359 L242.016,162.43 L0,302.359 L0,374.191 L38.785,396.691 L242.016,279.095 z" fill="#011627"></path>
<path d="M242.171,444.472 L303.754,480 L404.911,421.816 L242.016,327.806 L79.741,421.816 L180.885,480 z" fill="#011627"></path>
</g>
<path d="M790.139,346.572 Q780.73,332.096 768.426,316.174 Q756.123,300.251 742.552,285.415 Q728.982,270.578 714.507,257.189 Q700.032,243.799 685.919,234.029 L685.919,346.572 L640.323,346.572 L640.323,95.794 L685.919,95.794 L685.919,199.29 Q697.861,187.348 710.888,173.777 Q723.916,160.206 736.762,146.275 Q749.609,132.342 761.189,119.314 Q772.769,106.287 782.178,95.794 L836.821,95.794 Q824.879,109.545 811.489,124.382 Q798.1,139.217 783.987,154.236 Q769.874,169.253 755.58,184.09 Q741.286,198.928 727.535,212.316 Q742.733,223.896 758.475,239.277 Q774.216,254.656 789.415,272.207 Q804.614,289.758 818.546,308.755 Q832.478,327.754 844.058,346.572 L790.139,346.572 z M1076.2,251.76 Q1076.2,274.197 1069.686,292.652 Q1063.173,311.108 1051.231,324.135 Q1039.289,337.164 1022.462,344.401 Q1005.635,351.638 985.37,351.638 Q965.105,351.638 948.459,344.401 Q931.813,337.164 919.871,324.135 Q907.929,311.108 901.234,292.652 Q894.54,274.197 894.54,251.76 Q894.54,229.324 901.234,211.049 Q907.929,192.775 920.052,179.747 Q932.174,166.721 948.821,159.663 Q965.467,152.607 985.37,152.607 Q1005.273,152.607 1022.1,159.663 Q1038.927,166.721 1050.869,179.747 Q1062.811,192.775 1069.506,211.049 Q1076.2,229.324 1076.2,251.76 z M1031.328,251.76 Q1031.328,223.535 1019.205,207.07 Q1007.082,190.604 985.37,190.604 Q963.657,190.604 951.535,207.07 Q939.412,223.535 939.412,251.76 Q939.412,280.349 951.535,296.996 Q963.657,313.642 985.37,313.642 Q1007.082,313.642 1019.205,296.996 Q1031.328,280.349 1031.328,251.76 z M1307.257,157.311 Q1277.945,265.151 1239.224,352.724 Q1231.987,369.008 1224.388,380.587 Q1216.788,392.168 1207.38,399.767 Q1197.971,407.366 1186.391,410.805 Q1174.811,414.242 1159.612,414.242 Q1149.48,414.242 1139.528,412.07 Q1129.577,409.9 1124.51,407.366 L1132.472,372.264 Q1145.499,377.332 1158.165,377.332 Q1175.173,377.332 1184.762,369.189 Q1194.352,361.047 1201.59,344.039 Q1180.963,304.233 1161.964,257.189 Q1142.966,210.145 1128.129,157.311 L1174.811,157.311 Q1178.43,172.51 1183.677,190.242 Q1188.924,207.975 1195.076,226.249 Q1201.228,244.523 1208.103,262.617 Q1214.979,280.711 1221.855,296.272 Q1233.435,264.065 1243.567,227.697 Q1253.699,191.327 1262.023,157.311 L1307.257,157.311 z M1361.357,252.846 Q1361.357,227.878 1368.775,209.059 Q1376.194,190.242 1388.498,177.758 Q1400.801,165.273 1416.724,158.941 Q1432.646,152.607 1449.292,152.607 Q1488.375,152.607 1510.268,176.852 Q1532.161,201.098 1532.161,249.227 Q1532.161,252.846 1531.981,257.37 Q1531.8,261.893 1531.438,265.513 L1406.591,265.513 Q1408.401,288.31 1422.695,300.794 Q1436.989,313.28 1464.129,313.28 Q1480.052,313.28 1493.26,310.384 Q1506.468,307.49 1514.068,304.233 L1519.858,340.059 Q1516.239,341.867 1509.906,343.858 Q1503.573,345.849 1495.431,347.477 Q1487.289,349.104 1477.88,350.19 Q1468.472,351.276 1458.701,351.276 Q1433.732,351.276 1415.276,343.858 Q1396.821,336.44 1384.879,323.23 Q1372.937,310.022 1367.147,292.109 Q1361.357,274.197 1361.357,252.846 z M1488.375,233.305 Q1488.375,224.258 1485.842,216.117 Q1483.308,207.975 1478.423,202.003 Q1473.538,196.033 1466.481,192.594 Q1459.425,189.156 1449.654,189.156 Q1439.522,189.156 1431.922,192.956 Q1424.323,196.755 1419.076,202.908 Q1413.829,209.059 1410.934,217.02 Q1408.039,224.982 1406.953,233.305 L1488.375,233.305 z M1735.354,251.398 Q1735.354,223.535 1724.316,207.251 Q1713.279,190.965 1689.396,190.965 Q1678.54,190.965 1668.95,194.223 Q1659.36,197.479 1653.57,201.46 L1653.57,310.384 Q1658.274,311.47 1665.693,312.375 Q1673.111,313.28 1683.606,313.28 Q1707.851,313.28 1721.603,296.815 Q1735.354,280.349 1735.354,251.398 z M1780.226,252.122 Q1780.226,274.921 1773.531,293.195 Q1766.837,311.47 1754.352,324.497 Q1741.867,337.525 1724.136,344.401 Q1706.404,351.276 1683.968,351.276 Q1662.255,351.276 1642.533,348.02 Q1622.811,344.763 1609.783,340.781 L1609.783,72.995 L1653.57,65.757 L1653.57,163.826 Q1661.17,159.844 1672.207,156.587 Q1683.244,153.331 1696.633,153.331 Q1716.536,153.331 1732.278,160.387 Q1748.019,167.445 1758.514,180.471 Q1769.008,193.499 1774.617,211.773 Q1780.226,230.048 1780.226,252.122 z" fill="#011627"></path>
</g>
</svg>

<svg version="1.2" xmlns="http://www.w3.org/2000/svg" viewBox="0 0 480 480" width="480" height="480"><style>.a{fill:#011627}</style><path class="a" d="m242.2 116.7l242.5 139.6v-116.5l-242.7-139.8-242 139.9v116.7z"/><path class="a" d="m445.9 396.7l38.8-22.8v-71.5l-242.7-140-242 140v71.8l38.8 22.5 203.2-117.6z"/><path class="a" d="m242.2 444.5l61.6 35.5 101.1-58.2-162.9-94-162.3 94 101.2 58.2z"/><path class="a" d="m790.1 346.6q-9.4-14.5-21.7-30.4-12.3-15.9-25.8-30.8-13.6-14.8-28.1-28.2-14.5-13.4-28.6-23.2v112.6h-45.6v-250.8h45.6v103.5q12-12 25-25.5 13-13.6 25.9-27.5 12.8-14 24.4-27 11.6-13 21-23.5h54.6q-11.9 13.7-25.3 28.6-13.4 14.8-27.5 29.8-14.1 15.1-28.4 29.9-14.3 14.8-28.1 28.2 15.2 11.6 31 27 15.7 15.4 30.9 32.9 15.2 17.6 29.1 36.6 14 19 25.6 37.8zm286-94.8q0 22.4-6.5 40.9-6.5 18.4-18.5 31.4-11.9 13.1-28.7 20.3-16.8 7.2-37.1 7.2-20.3 0-36.9-7.2-16.7-7.2-28.6-20.3-12-13-18.6-31.4-6.7-18.5-6.7-40.9 0-22.5 6.7-40.8 6.6-18.2 18.8-31.3 12.1-13 28.7-20 16.7-7.1 36.6-7.1 19.9 0 36.7 7.1 16.8 7 28.8 20 11.9 13.1 18.6 31.3 6.7 18.3 6.7 40.8zm-44.9 0q0-28.3-12.1-44.7-12.1-16.5-33.8-16.5-21.7 0-33.8 16.5-12.2 16.4-12.2 44.7 0 28.5 12.2 45.2 12.1 16.6 33.8 16.6 21.7 0 33.8-16.6 12.1-16.7 12.1-45.2zm276-94.5q-29.3 107.9-68.1 195.4-7.2 16.3-14.8 27.9-7.6 11.6-17 19.2-9.4 7.6-21 11-11.6 3.4-26.8 3.4-10.1 0-20.1-2.1-9.9-2.2-15-4.7l8-35.1q13 5 25.7 5 17 0 26.6-8.1 9.6-8.2 16.8-25.2-20.6-39.8-39.6-86.8-19-47.1-33.9-99.9h46.7q3.6 15.2 8.9 32.9 5.2 17.8 11.4 36 6.1 18.3 13 36.4 6.9 18.1 13.8 33.7 11.6-32.2 21.7-68.6 10.1-36.4 18.4-70.4zm54.1 95.5q0-24.9 7.5-43.7 7.4-18.9 19.7-31.3 12.3-12.5 28.2-18.9 15.9-6.3 32.6-6.3 39.1 0 61 24.3 21.8 24.2 21.8 72.3 0 3.6-0.1 8.2-0.2 4.5-0.6 8.1h-124.8q1.8 22.8 16.1 35.3 14.3 12.5 41.4 12.5 15.9 0 29.1-2.9 13.3-2.9 20.9-6.2l5.7 35.9q-3.6 1.8-9.9 3.8-6.3 1.9-14.5 3.6-8.1 1.6-17.5 2.7-9.4 1.1-19.2 1.1-25 0-43.4-7.4-18.5-7.5-30.4-20.7-12-13.2-17.8-31.1-5.8-17.9-5.8-39.3zm127.1-19.5q0-9-2.6-17.2-2.5-8.1-7.4-14.1-4.9-6-11.9-9.4-7.1-3.4-16.9-3.4-10.1 0-17.7 3.8-7.6 3.8-12.8 9.9-5.3 6.2-8.2 14.1-2.9 8-4 16.3zm291.9 18.8q0 22.8-6.7 41.1-6.7 18.3-19.2 31.3-12.5 13-30.2 19.9-17.7 6.9-40.2 6.9-21.7 0-41.4-3.3-19.7-3.2-32.8-7.2v-267.8l43.8-7.2v98q7.6-4 18.7-7.2 11-3.3 24.4-3.3 19.9 0 35.6 7.1 15.8 7 26.3 20.1 10.5 13 16.1 31.3 5.6 18.2 5.6 40.3zm-44.9-0.7q0-27.9-11-44.1-11.1-16.3-34.9-16.3-10.9 0-20.5 3.2-9.6 3.3-15.4 7.3v108.9q4.7 1.1 12.2 2 7.4 0.9 17.9 0.9 24.2 0 38-16.5 13.7-16.5 13.7-45.4z"/></svg>
